X: 24366
T: Love And Hospitality
R: jig
M: 6/8
K: Ddorian
GEG A2c|B2d A2B|GEG A2c|BGA GED|
GEG A2c|B2d A2B|GBd ABc|BGA GED||
D (3DDD d2d|AGE c2c|(3ABA A d2d|AGE GED|
D (3DDD d2d|AGE c3|Bcd ABc|BGA GED||

